X:1
T:Title
%%score 1 2
L:1/8
M:9/8
K:Eb
V:1 treble nm="Grand Piano, Piano"
V:2 bass nm="Grand Piano, Piano"
V:1
 z3 z3[Q:1/4=100] E[EF][EG] | [EB]3 [EB]3 E[EF][EG] | [DF]3 E3 E[EF][EG] |[M:3/4] [EB]3 [EB]3 | %4
w: 1.~I~ must~ tell~|Je sus~ all~ of~ my~|tri als;~ I~ can not~|bear~ these~|
[M:3/8] E[EF][EG] |[M:9/8] [DF]6 E[EF][EG] | [EB]3 [EB]3 E[EF][EG] |[M:3/4] [DF]3 E3 | %8
w: bur dens~ a|lone;~ In~ my~ dis|tress~ he~ kind ly~ will~|help~ me;~|
[M:3/8] [Ee][Ee][Ee] |[M:9/8] [EB]3 [EG]3 E[EG][DF] |[M:3/4] E6 |[M:3/8] [Ge][Ge][Ge] | %12
w: He~ e ver~|loves~ and~ cares~ for~ His~|own.~||
[M:3/4] [Ge]3 [GB]3 |[M:3/8] [Be][Be][Be] |[M:9/8] [ce]3 [Ac]3 A[AB][Ac] | %15
w: |||
 [GB]3 [GB]3 [FB][FA][EG] | [DF]6 E[EF][EG] | [EB]3 [EB]3 E[EF][EG] | [DF]3 E3 [Ee][Ee][Ee] | %19
w: ||||
 [EB]3 [EG]3 E[EG][DF] |[M:3/4] [B,E]6 |] %21
w: ||
V:2
 z3 z3 [E,G,][E,A,][E,B,] | [E,G,]3 [E,G,]3 [E,G,][E,A,][E,B,] | %2
 [B,,A,]3 [E,G,]3 [E,G,][E,A,][E,B,] |[M:3/4] [E,G,]3 [E,G,]3 |[M:3/8] [E,G,][E,A,][E,B,] | %5
[M:9/8] [B,,B,]6 [E,G,][E,A,][E,B,] | [E,G,]3 [E,G,]3 [E,G,][E,A,][E,B,] | %7
[M:3/4] [B,,A,]3 [C,G,]3 |[M:3/8] [=B,,_G,][B,,G,][B,,G,] | %9
[M:9/8] [B,,G,]3 [B,,B,]3 [B,,G,][B,,B,][B,,A,] |[M:3/4] [E,G,]6 |[M:3/8] [E,B,][E,B,][E,B,] | %12
[M:3/4] [E,B,]3 [E,E]3 |[M:3/8] [G,E][G,E][G,E] |[M:9/8] [A,E]3 [A,E]3 [A,C][A,D][A,E] | %15
 [E,E]3 [E,B,]3 [D,B,][D,B,][E,B,] | [B,,B,]6 [E,G,][E,A,][E,B,] | %17
 [E,G,]3 [E,G,]3 [E,G,][E,A,][E,B,] | [B,,A,]3 [C,G,]3 [=B,,_G,][B,,G,][B,,G,] | %19
 [B,,G,]3 [B,,B,]3 [B,,G,][B,,B,][B,,A,] |[M:3/4] [E,G,]6 |] %21

